X: 14
T: Home Ruler, The
C: Frank McCollum
Z: Fernando Durbán Galnares
S: https://thesession.org/tunes/310#setting48037
R: hornpipe
M: 4/4
L: 1/8
K: Dmaj
|:AF|"D"D2FA DAFA|"D"dfed "G"B2dB|"D"A2AB AFDE|"Em" FDED "A"B,DA,B,|
"D"D2FA DAFA|"D"dfed "G"B2dB|"D"A2AB "A"AFEG|"D"F2D2 D2:|
|:dB|"D"Addc defg|"F#"afbf "Bm"afed|"G"efed BAFA|"Em"fded "A"BdFG|
"D"Addc defg|"F#"afbf "Bm"afed|"G"efed "Em"BAdB|"A"AFEF "D"D2:|

